icons/hdr.svg

<svg role="img" xmlns="http://www.w3.org/2000/svg" width="24" height="24" viewBox="0 0 24 24" aria-labelledby="hdrIconTitle hdrIconDesc">
    <title id="hdrIconTitle">HDR</title>
    <desc id="hdrIconDesc">Icon of hdr (High Dynamic Range)</desc>
    <path d="M18 12h1l2 3"/>
    <path d="M7 9v6m3-6v6h2c1.333 0 2-1 2-3s-.667-3-2-3h-2zm7 6V9h3c.667 0 1 .5 1 1.5s-.333 1.5-1 1.5h-3M7 12H3m0-3v6"/>
</svg>

<svg role="img" xmlns="http://www.w3.org/2000/svg" width="24" height="24" viewBox="0 0 24 24">
    <path d="M7 9L7 15M10 9L10 15 12 15C13.3333333 15 14 14 14 12 14 10 13.3333333 9 12 9L10 9zM17 15L17 9 20 9C20.6666667 9 21 9.5 21 10.5 21 11.5 20.6666667 12 20 12L17 12M7 12L3 12M19 12L21 15M3 9L3 15"/>
</svg>
